X:1
T:Title
%%score 1 2 3 4
L:1/8
Q:1/4=102
M:2/4
K:F
V:1 treble nm="Grand Piano, Soprano"
V:2 treble nm="Grand Piano, Staff-1"
V:3 bass nm="Choir Pad, Staff-2"
V:4 bass nm="Choir Pad, Fox, Thomas Cummuck"
V:1
 A2 c2- | cd c2 | c2 c2 | z c c2 | c2 cG | G2 G2 | z A d2- | dc B2 | A2 dc | BA G2- | GG Ac | %11
w: By~Thomas~Cummuck,~1845 *|||||||||||
 c2 c2 | cB A2- | A4- | A2 z2 |] %15
w: ||||
V:2
 F2 F2- | FF F2 | E2 F2 | z E F2 | A2 GE | F2 F2 | z F F2- | FF F2 | F2 F2 | F2 E2- | EE F2 | %11
 A2 GF | E2 F2- | F4- | F2 z2 |] %15
V:3
 C2 A,2- | A,B, G,2 | G,2 A,2 | z A, A,2 | F2 EC | D2 C2 | z C F2- | FE D2 | C2 B,A, | DC C2- | %10
 CC CA, | FC[K:bass] B,A, | G,2 F,2- | F,4- | F,2 z2 |] %15
V:4
 F,2 F,2- | F,B,, C,2 | C,2 F,2 | z C, F,2 | F,2 G,2 | G,2 C,2 | z F, F,2- | F,F, F,2 | F,2 F,2 | %9
 F,2 C,2- | C,C, F,2 | F,2 C2 | C,2 F,2- | F,4- | F,2 z2 |] %15

